assets/icons/utility/ribbon.svg

<?xml version="1.0"?><svg xmlns="http://www.w3.org/2000/svg" width="52" height="52" viewBox="0 0 52 52"><path fill="#fff" d="m24.1 36.7l-9.4 13.3-2.4-6.4h-6.4l8.2-11.1c1.6 1 3.3 1.1 4.5 1.4 0.4 0.1 0.9 0.2 1.1 0.2 0.2 0.1 0.6 0.4 0.8 0.6 0.9 0.6 2.1 1.5 3.6 2z m15.2-4.2c-1.6 1-3.3 1.1-4.5 1.4-0.4 0.1-1 0.2-1.2 0.2-0.2 0.1-0.6 0.4-0.8 0.6-0.9 0.6-2 1.6-3.5 2.1l9.4 13.2 2.4-6.4h6.4l-8.2-11.1z m-12.6-20.9c-3.1 0-5.6 2.5-5.6 5.6s2.5 5.6 5.6 5.6 5.6-2.5 5.6-5.6-2.5-5.6-5.6-5.6z m15.2 5.6c0 1.9-2.1 3.4-2.8 5.1-0.7 1.8-0.3 4.3-1.7 5.6-1.3 1.3-3.8 1-5.6 1.7-1.7 0.7-3.2 2.8-5.1 2.8s-3.4-2.1-5.1-2.8c-1.8-0.7-4.3-0.3-5.6-1.7-1.3-1.3-1-3.8-1.7-5.6-0.7-1.7-2.8-3.2-2.8-5.1s2.1-3.4 2.8-5.1c0.7-1.8 0.3-4.3 1.7-5.6 1.3-1.3 3.8-1 5.6-1.7 1.7-0.7 3.2-2.8 5.1-2.8s3.4 2.1 5.1 2.8c1.8 0.7 4.3 0.3 5.6 1.7 1.3 1.3 1 3.8 1.7 5.6 0.7 1.7 2.8 3.2 2.8 5.1z m-4.8 0c0-5.8-4.6-10.4-10.4-10.4s-10.4 4.6-10.4 10.4 4.6 10.4 10.4 10.4 10.4-4.6 10.4-10.4z"></path></svg>

<svg xmlns="http://www.w3.org/2000/svg" x="0px" y="0px"
	 width="52px" height="52px" viewBox="0 0 52 52" enable-background="new 0 0 52 52" xml:space="preserve">
<path fill="#FFFFFF" d="M24.1,36.7L14.7,50l-2.4-6.4H5.9l8.2-11.1c1.6,1,3.3,1.1,4.5,1.4c0.4,0.1,0.9,0.2,1.1,0.2
	c0.2,0.1,0.6,0.4,0.8,0.6C21.4,35.3,22.6,36.2,24.1,36.7z M39.3,32.5c-1.6,1-3.3,1.1-4.5,1.4c-0.4,0.1-1,0.2-1.2,0.2
	c-0.2,0.1-0.6,0.4-0.8,0.6c-0.9,0.6-2,1.6-3.5,2.1L38.7,50l2.4-6.4h6.4C47.5,43.6,39.3,32.5,39.3,32.5z M26.7,11.6
	c-3.1,0-5.6,2.5-5.6,5.6s2.5,5.6,5.6,5.6s5.6-2.5,5.6-5.6S29.8,11.6,26.7,11.6z M41.9,17.2c0,1.9-2.1,3.4-2.8,5.1
	c-0.7,1.8-0.3,4.3-1.7,5.6c-1.3,1.3-3.8,1-5.6,1.7c-1.7,0.7-3.2,2.8-5.1,2.8s-3.4-2.1-5.1-2.8c-1.8-0.7-4.3-0.3-5.6-1.7
	c-1.3-1.3-1-3.8-1.7-5.6c-0.7-1.7-2.8-3.2-2.8-5.1s2.1-3.4,2.8-5.1c0.7-1.8,0.3-4.3,1.7-5.6c1.3-1.3,3.8-1,5.6-1.7
	C23.3,4.1,24.8,2,26.7,2s3.4,2.1,5.1,2.8c1.8,0.7,4.3,0.3,5.6,1.7c1.3,1.3,1,3.8,1.7,5.6C39.8,13.8,41.9,15.3,41.9,17.2z M37.1,17.2
	c0-5.8-4.6-10.4-10.4-10.4s-10.4,4.6-10.4,10.4s4.6,10.4,10.4,10.4S37.1,23,37.1,17.2z"/>
</svg>
